X:1
T:Title
%%score ( 1 2 ) ( 3 4 )
L:1/8
Q:1/4=100
M:4/4
K:Ab
V:1 treble nm="Grand Piano, Soprano"
V:2 treble 
V:3 bass nm="Choir Pad, Bass"
V:4 bass 
V:1
 [CE]2 [CE][CE] [CA]2 [CG]>[CA] | [EG]2 [DF]4 z2 | [B,D]2 [B,D][B,D] [B,G]2 [DF]>[DF] | [CE]6 z2 | %4
w: By~William~A.~Post,~1906 * * * * *||||
 [CE]2 [CE][CE] [CA]2 [CG]>[CA] | [EG]2 [DF]4 z2 | [CE]2 [Fd][Ec] [=DB] [DF]2 [_DG] | A6 z2 | %8
w: ||||
 [FA]2 [=EG][FA] [Fd]2 [FA]>[EB] | [Ec]2 [CE]4 z2 | [CE]2 [CF][CG] [FA]2 [DB][DF] | B4 z4 | %12
w: ||||
 [Ac]2 [A_c][A=c] A2 [Ac]>[_Ge] | [Fe]2 [Fd]4 z2 | [CE]2 [Fd][Ec] [=DB] [DF]2 [_DG] | A8 |] %16
w: ||||
V:2
 x8 | x8 | x8 | x8 | x8 | x8 | x8 | CE=D_D C2 z2 | x8 | x8 | x8 | D4- [D_c]2 z2 | x8 | x8 | x8 | %15
 CE=D_D C4 |] %16
V:3
 A,,E,A,E, A,,E,A,E, | D,F,A,F, D,F,A,F, | E,,E,G,E, E,,E,G,E, | A,,C,E,A, CA,E,C, | %4
 A,,E,A,E, A,,E,A,E, | D,F,A,F, D,F,A,F, | [E,A,]2 z2 [B,,A,]3 [E,B,] | A,_G,F,=E, _E,2 z2 | %8
 [D,D]2 [D,D][D,D] [D,A,]2 [D,A,]>[D,A,] | [A,,A,]2 [A,,A,]4 z2 | A,2 A,A, [F,C]2 [B,,A,][B,,A,] | %11
 [E,G,]6 z2 | [A,E]2 [A,=D][A,E] [A,C]2 [A,E]>[C,A,] | [D,A,]2 [D,A,]4 z2 | %14
 [E,A,]2 [E,A,][E,A,] [B,,A,] [B,,B,]2 [E,B,] | A,_G,F,=E, _E,4 |] %16
V:4
 x8 | x8 | x8 | x8 | x8 | x8 | x8 | A,,6 z2 | x8 | x8 | x8 | x8 | x8 | x8 | x8 | A,,8 |] %16

